svg/clover_outline.svg

<svg xmlns="http://www.w3.org/2000/svg" viewBox="0 0 24 24"><path d="m10.61 12.62.04-.04.51-.55.02-.03-.02-.03c-.16-.19-.34-.37-.5-.55l-.05-.04C8.42 8.97 7.03 7.53 5.58 7.12 5.29 7.04 5 7 4.69 7 3.19 7 2 8.25 2 9.75c0 .63.19 1.25.55 1.75.13.18.28.35.45.5-.17.15-.32.32-.45.5-.36.5-.55 1.14-.55 1.81C2 15.81 3.25 17 4.75 17c.28 0 .56-.04.83-.11 1.42-.39 2.82-1.84 5.03-4.27M8.47 12c-.9.97-1.59 1.69-2.21 2.21-.83.7-1.26.79-1.51.79-.45 0-.75-.35-.75-.69 0-.38.14-.65.33-.81L6 12l-1.67-1.5A1 1 0 0 1 4 9.75c0-.45.35-.75.69-.75.31 0 .74.1 1.57.8.62.51 1.31 1.23 2.21 2.2m-1.35 6.43c-.08.29-.12.57-.12.88C7 20.81 8.25 22 9.75 22c.63 0 1.25-.19 1.75-.55.18-.13.35-.28.5-.45.15.17.32.32.5.45.5.36 1.14.55 1.81.55 1.5 0 2.69-1.25 2.69-2.75 0-.28-.04-.56-.11-.83-.39-1.42-1.84-2.82-4.27-5.03l-.04-.04-.55-.5-.03-.03-.03.03-.55.5-.04.03c-2.41 2.2-3.85 3.59-4.26 5.05m4.88-2.9c.97.9 1.69 1.59 2.21 2.21.7.83.79 1.26.79 1.51 0 .45-.35.75-.69.75-.38 0-.65-.14-.81-.33L12 18l-1.5 1.67c-.17.2-.45.33-.75.33-.45 0-.75-.35-.75-.69 0-.31.1-.74.8-1.57.51-.62 1.23-1.31 2.2-2.21m1.39-2.91c2.2 2.41 3.58 3.85 5.04 4.26.29.08.57.12.88.12 1.5 0 2.69-1.25 2.69-2.75 0-.63-.19-1.25-.55-1.75-.13-.18-.28-.35-.45-.5.17-.15.32-.32.45-.5.36-.5.55-1.13.55-1.81C22 8.19 20.75 7 19.25 7c-.28 0-.56.04-.83.11-1.42.39-2.82 1.84-5.03 4.27l-.03.04-.53.58.53.58zm2.15-.62c.89-.97 1.59-1.69 2.2-2.21.84-.7 1.26-.79 1.51-.79.45 0 .75.35.75.69 0 .38-.14.65-.33.81L18 12l1.67 1.5c.2.18.33.45.33.75 0 .45-.35.75-.69.75-.31 0-.74-.1-1.57-.8-.61-.51-1.31-1.23-2.2-2.2m-2.92-1.38c2.41-2.2 3.85-3.59 4.26-5.04.08-.29.12-.58.12-.89C17 3.19 15.75 2 14.25 2c-.63 0-1.25.19-1.75.55-.18.13-.35.28-.5.45-.15-.17-.32-.32-.5-.45C11 2.19 10.37 2 9.69 2 8.19 2 7 3.25 7 4.75c0 .28.04.56.11.83C7.5 7 8.95 8.4 11.38 10.62l.04.03.55.5.03.03.03-.02.56-.51.03-.04M12 8.47c-.97-.9-1.69-1.59-2.21-2.21C9.09 5.43 9 5 9 4.75c0-.45.35-.75.69-.75.38 0 .65.14.81.33L12 6l1.5-1.67c.18-.2.45-.33.75-.33.45 0 .75.35.75.69 0 .31-.1.74-.8 1.57-.51.62-1.23 1.31-2.2 2.21"/></svg>

<svg xmlns="http://www.w3.org/2000/svg" id="mdi-clover-outline" viewBox="0 0 24 24"><path d="M10.61 12.62L10.65 12.58L11.16 12.03L11.18 12L11.16 11.97C11 11.78 10.82 11.6 10.66 11.42L10.61 11.38C8.42 8.97 7.03 7.53 5.58 7.12C5.29 7.04 5 7 4.69 7C3.19 7 2 8.25 2 9.75C2 10.38 2.19 11 2.55 11.5C2.68 11.68 2.83 11.85 3 12C2.83 12.15 2.68 12.32 2.55 12.5C2.19 13 2 13.64 2 14.31C2 15.81 3.25 17 4.75 17C5.03 17 5.31 16.96 5.58 16.89C7 16.5 8.4 15.05 10.61 12.62M8.47 12C7.57 12.97 6.88 13.69 6.26 14.21C5.43 14.91 5 15 4.75 15C4.3 15 4 14.65 4 14.31C4 13.93 4.14 13.66 4.33 13.5L6 12L4.33 10.5C4.13 10.33 4 10.05 4 9.75C4 9.3 4.35 9 4.69 9C5 9 5.43 9.1 6.26 9.8C6.88 10.31 7.57 11.03 8.47 12M7.12 18.43C7.04 18.72 7 19 7 19.31C7 20.81 8.25 22 9.75 22C10.38 22 11 21.81 11.5 21.45C11.68 21.32 11.85 21.17 12 21C12.15 21.17 12.32 21.32 12.5 21.45C13 21.81 13.64 22 14.31 22C15.81 22 17 20.75 17 19.25C17 18.97 16.96 18.69 16.89 18.42C16.5 17 15.05 15.6 12.62 13.39L12.58 13.35L12.03 12.85L12 12.82L11.97 12.85L11.42 13.35L11.38 13.38C8.97 15.58 7.53 16.97 7.12 18.43M12 15.53C12.97 16.43 13.69 17.12 14.21 17.74C14.91 18.57 15 19 15 19.25C15 19.7 14.65 20 14.31 20C13.93 20 13.66 19.86 13.5 19.67L12 18L10.5 19.67C10.33 19.87 10.05 20 9.75 20C9.3 20 9 19.65 9 19.31C9 19 9.1 18.57 9.8 17.74C10.31 17.12 11.03 16.43 12 15.53M13.39 12.62C15.59 15.03 16.97 16.47 18.43 16.88C18.72 16.96 19 17 19.31 17C20.81 17 22 15.75 22 14.25C22 13.62 21.81 13 21.45 12.5C21.32 12.32 21.17 12.15 21 12C21.17 11.85 21.32 11.68 21.45 11.5C21.81 11 22 10.37 22 9.69C22 8.19 20.75 7 19.25 7C18.97 7 18.69 7.04 18.42 7.11C17 7.5 15.6 8.95 13.39 11.38L13.36 11.42L12.83 12L12.83 12L12.83 12L13.36 12.58L13.39 12.62M15.54 12C16.43 11.03 17.13 10.31 17.74 9.79C18.58 9.09 19 9 19.25 9C19.7 9 20 9.35 20 9.69C20 10.07 19.86 10.34 19.67 10.5L18 12L19.67 13.5C19.87 13.68 20 13.95 20 14.25C20 14.7 19.65 15 19.31 15C19 15 18.57 14.9 17.74 14.2C17.13 13.69 16.43 12.97 15.54 12M12.62 10.62C15.03 8.42 16.47 7.03 16.88 5.58C16.96 5.29 17 5 17 4.69C17 3.19 15.75 2 14.25 2C13.62 2 13 2.19 12.5 2.55C12.32 2.68 12.15 2.83 12 3C11.85 2.83 11.68 2.68 11.5 2.55C11 2.19 10.37 2 9.69 2C8.19 2 7 3.25 7 4.75C7 5.03 7.04 5.31 7.11 5.58C7.5 7 8.95 8.4 11.38 10.62L11.42 10.65L11.97 11.15L12 11.18L12.03 11.16L12.59 10.65L12.62 10.61M12 8.47C11.03 7.57 10.31 6.88 9.79 6.26C9.09 5.43 9 5 9 4.75C9 4.3 9.35 4 9.69 4C10.07 4 10.34 4.14 10.5 4.33L12 6L13.5 4.33C13.68 4.13 13.95 4 14.25 4C14.7 4 15 4.35 15 4.69C15 5 14.9 5.43 14.2 6.26C13.69 6.88 12.97 7.57 12 8.47Z" /></svg>
